static/assets/images/networks/boba.svg

<svg xmlns="http://www.w3.org/2000/svg" fill="none" viewBox="0 0 512 512"><path fill="#000" d="M256 512c141.385 0 256-114.615 256-256S397.385 0 256 0c-40.723 0-79.226 9.509-113.408 26.427a256 256 0 0 0-40.422 24.927C40.121 98.07 0 172.35 0 256c0 141.385 114.615 256 256 256"/><path fill="#C2F200" d="M257.374 82.222c-34.988 0-68.003 10.68-95.455 28.539l7.536 44.066a133 133 0 0 1 87.919-33.027 134.28 134.28 0 0 1 92.714 40.541 134.38 134.38 0 0 1 38.116 93.765 134.38 134.38 0 0 1-38.116 93.765 134.28 134.28 0 0 1-92.714 40.541 134.18 134.18 0 0 1-104.479-50.29 134.288 134.288 0 0 1-26.323-112.959L114.55 157.34a173.896 173.896 0 0 0-11.084 179.45 173.8 173.8 0 0 0 63.827 68.057 173.7 173.7 0 0 0 89.812 25.233 173.83 173.83 0 0 0 122.98-50.847 173.97 173.97 0 0 0 51.019-122.948 173.96 173.96 0 0 0-50.829-123.026 173.83 173.83 0 0 0-122.901-51.037"/><path fill="#1BCCC7" d="M245.532 355.321a23.773 23.773 0 0 0 22.028-14.619 23.794 23.794 0 0 0-5.096-25.949 23.77 23.77 0 0 0-36.604 3.563 23.8 23.8 0 0 0-4.013 13.222 23.702 23.702 0 0 0 14.6 21.971 23.7 23.7 0 0 0 9.085 1.812m65.221-23.783a23.77 23.77 0 0 0 22.029-14.619 23.79 23.79 0 0 0-5.096-25.949 23.768 23.768 0 0 0-36.604 3.563 23.8 23.8 0 0 0-4.013 13.222 23.7 23.7 0 0 0 14.6 21.971 23.7 23.7 0 0 0 9.084 1.812m-55.981-47.476a23.76 23.76 0 0 0 16.798-6.998 23.78 23.78 0 0 0 6.931-16.83 23.78 23.78 0 0 0-23.818-23.738 23.77 23.77 0 0 0-16.798 6.998 23.786 23.786 0 0 0 16.887 40.568m-75.18 23.783a23.76 23.76 0 0 0 16.798-6.998 23.8 23.8 0 0 0 5.139-7.725 23.797 23.797 0 0 0-5.202-25.909 23.78 23.78 0 0 0-16.824-6.934 23.77 23.77 0 0 0-16.798 6.998 23.79 23.79 0 0 0 .063 33.634 23.77 23.77 0 0 0 16.824 6.934m154.846-55.105a23.78 23.78 0 0 0 16.797-6.997 23.8 23.8 0 0 0 5.139-7.726 23.77 23.77 0 0 0-.034-18.202 23.77 23.77 0 0 0-12.891-12.847 23.769 23.769 0 0 0-25.899 5.204 23.79 23.79 0 0 0 .064 33.634 23.77 23.77 0 0 0 16.824 6.934m-47.369-50.258a23.773 23.773 0 0 0 23.729-23.828 23.8 23.8 0 0 0-6.995-16.804 23.77 23.77 0 0 0-25.918-5.106 23.79 23.79 0 0 0-7.64 38.804 23.77 23.77 0 0 0 16.824 6.934m-83.792 23.693a23.77 23.77 0 0 0 22.028-14.619 23.79 23.79 0 0 0-5.096-25.949 23.77 23.77 0 0 0-36.604 3.563 23.8 23.8 0 0 0-4.013 13.222 23.691 23.691 0 0 0 23.685 23.783"/><path fill="#C2F200" fill-rule="evenodd" d="M140.173 244.27a22.06 22.06 0 0 0 14.21 5.329c.987 0 2.332 0 3.409-.359a22.075 22.075 0 0 0 18.212-25.488L142.592 26.427a256 256 0 0 0-40.422 24.927l30.592 179.668a22.08 22.08 0 0 0 7.411 13.248" clip-rule="evenodd"/></svg>

<svg width="512" height="512" viewBox="0 0 512 512" fill="none" xmlns="http://www.w3.org/2000/svg">
<path d="M256 512C397.385 512 512 397.385 512 256C512 114.615 397.385 0 256 0C215.277 0 176.774 9.50866 142.592 26.4269C128.313 33.4941 114.788 41.8542 102.17 51.3542C40.1212 98.0697 0 172.349 0 256C0 397.385 114.615 512 256 512Z" fill="black"/>
<path d="M257.374 82.2215C222.386 82.2215 189.371 92.9013 161.919 110.761L169.455 154.827C193.774 133.492 225.029 121.752 257.374 121.8C292.38 122.705 325.648 137.252 350.088 162.341C374.527 187.43 388.204 221.075 388.204 256.106C388.204 291.137 374.527 324.782 350.088 349.871C325.648 374.959 292.38 389.507 257.374 390.412C237.309 390.375 217.507 385.839 199.426 377.136C181.344 368.432 165.444 355.784 152.895 340.122C140.345 324.459 131.466 306.181 126.911 286.632C122.355 267.084 122.239 246.762 126.572 227.163L114.55 157.34C96.5287 183.4 85.9705 213.892 84.0169 245.52C82.0634 277.148 88.7889 308.709 103.466 336.79C118.144 364.871 140.215 388.405 167.293 404.847C194.372 421.29 225.428 430.015 257.105 430.08C303.217 430.116 347.454 411.825 380.085 379.233C412.716 346.64 431.068 302.414 431.104 256.285C431.14 210.156 412.856 165.903 380.275 133.259C347.695 100.616 303.486 82.2572 257.374 82.2215Z" fill="#C2F200"/>
<path d="M245.532 355.321C250.238 355.339 254.843 353.959 258.764 351.356C262.686 348.754 265.747 345.046 267.56 340.702C269.373 336.358 269.857 331.573 268.95 326.953C268.042 322.334 265.785 318.088 262.464 314.753C259.143 311.418 254.907 309.144 250.293 308.219C245.679 307.294 240.894 307.76 236.544 309.557C232.195 311.354 228.477 314.403 225.86 318.316C223.244 322.229 221.847 326.83 221.847 331.538C221.836 334.657 222.44 337.748 223.624 340.633C224.809 343.517 226.552 346.14 228.753 348.35C230.953 350.559 233.568 352.312 236.447 353.509C239.327 354.705 242.414 355.321 245.532 355.321ZM310.753 331.538C315.459 331.556 320.065 330.176 323.986 327.574C327.907 324.971 330.968 321.263 332.782 316.919C334.595 312.575 335.078 307.79 334.171 303.171C333.264 298.551 331.007 294.305 327.686 290.97C324.364 287.635 320.128 285.361 315.514 284.436C310.9 283.511 306.115 283.977 301.766 285.774C297.417 287.572 293.698 290.62 291.082 294.533C288.466 298.446 287.069 303.047 287.069 307.755C287.057 310.874 287.661 313.965 288.846 316.85C290.031 319.735 291.774 322.357 293.974 324.567C296.175 326.776 298.79 328.53 301.669 329.726C304.548 330.922 307.636 331.538 310.753 331.538ZM254.772 284.062C257.894 284.056 260.985 283.435 263.867 282.234C266.749 281.034 269.366 279.277 271.57 277.064C273.773 274.852 275.52 272.227 276.709 269.339C277.898 266.451 278.507 263.357 278.501 260.234C278.496 257.111 277.875 254.02 276.675 251.136C275.474 248.253 273.718 245.635 271.506 243.43C269.295 241.226 266.671 239.479 263.784 238.289C260.897 237.1 257.805 236.49 254.683 236.496C248.377 236.508 242.335 239.025 237.885 243.494C233.435 247.962 230.941 254.016 230.953 260.324C230.965 266.632 233.481 272.676 237.948 277.128C242.415 281.58 248.467 284.074 254.772 284.062ZM179.592 307.845C182.714 307.839 185.805 307.218 188.687 306.017C191.569 304.817 194.187 303.06 196.39 300.847C198.594 298.635 200.34 296.01 201.529 293.122C202.718 290.234 203.327 287.14 203.322 284.017C203.316 280.894 202.695 277.802 201.495 274.919C200.295 272.036 198.538 269.417 196.327 267.213C194.115 265.009 191.491 263.262 188.604 262.072C185.717 260.883 182.625 260.273 179.503 260.279C173.197 260.291 167.155 262.808 162.705 267.277C158.255 271.745 155.762 277.799 155.773 284.107C155.785 290.414 158.302 296.459 162.768 300.911C167.235 305.362 173.287 307.857 179.592 307.845ZM334.438 252.74C337.56 252.734 340.65 252.113 343.532 250.913C346.414 249.712 349.032 247.955 351.235 245.743C353.439 243.53 355.185 240.905 356.374 238.017C357.564 235.13 358.173 232.036 358.167 228.913C358.161 225.789 357.54 222.698 356.34 219.815C355.14 216.931 353.384 214.313 351.172 212.109C348.96 209.904 346.336 208.157 343.449 206.968C340.563 205.778 337.47 205.169 334.348 205.175C328.043 205.186 322 207.704 317.55 212.172C313.1 216.641 310.607 222.695 310.619 229.002C310.631 235.31 313.147 241.354 317.614 245.806C322.081 250.258 328.132 252.752 334.438 252.74ZM287.069 202.482C293.374 202.47 299.417 199.953 303.867 195.485C308.317 191.016 310.81 184.962 310.798 178.654C310.786 172.347 308.27 166.302 303.803 161.85C299.336 157.399 293.285 154.904 286.979 154.916C283.857 154.922 280.767 155.543 277.885 156.744C275.003 157.945 272.385 159.701 270.182 161.914C265.732 166.383 263.238 172.437 263.25 178.744C263.262 185.052 265.778 191.096 270.245 195.548C274.712 200 280.764 202.494 287.069 202.482ZM203.277 226.175C207.983 226.193 212.588 224.813 216.509 222.211C220.431 219.608 223.492 215.9 225.305 211.556C227.118 207.212 227.602 202.427 226.695 197.808C225.787 193.189 223.53 188.942 220.209 185.607C216.888 182.272 212.652 179.998 208.038 179.073C203.423 178.148 198.639 178.614 194.289 180.411C189.94 182.209 186.222 185.257 183.605 189.17C180.989 193.083 179.592 197.685 179.592 202.392C179.581 205.511 180.185 208.602 181.369 211.487C182.554 214.372 184.297 216.994 186.498 219.204C188.698 221.414 191.313 223.167 194.192 224.363C197.072 225.56 200.159 226.175 203.277 226.175Z" fill="#1BCCC7"/>
<path fill-rule="evenodd" clip-rule="evenodd" d="M140.173 244.27C144.131 247.671 149.165 249.559 154.383 249.599C155.37 249.599 156.715 249.599 157.792 249.24C160.665 248.772 163.417 247.74 165.89 246.204C168.363 244.667 170.508 242.657 172.2 240.288C173.893 237.919 175.101 235.238 175.754 232.4C176.406 229.562 176.491 226.623 176.004 223.752L142.592 26.4269C128.313 33.4941 114.788 41.8542 102.17 51.3542L132.762 231.022C133.589 236.175 136.215 240.869 140.173 244.27Z" fill="#C2F200"/>
</svg>
